X: 49
T:Dowd's #9
M:C|
L:1/8
Q:200
S:THSP
R:reel
D:Davy Spillane: Shadow Hunter
Z:
K:D
"D"DFAF GFEF|D2FA dABA|DFAF "G"GFGB|"D"AGFD "A"A,B,CE|
"D"DF~F2 GFEF|D2FA dABA|DFAF "G"GFGB|"A"AGFD "D"EDD2:|
|:"D"fd~d2 "G"g2ag|"D"fedf "A"ecA2|"D"fd~d2 "G"gfec|"A"dcde "D"fddA|
dfaf "G"gfeg|"D"fedf "A"ecAF|"G"G2BG "D"FAdB
|1 "A"AGFD "D"EDD2:|2 "A"AGFD A,2CE|]
